!!!COM: Haydn, Franz Joseph
!!!OPR: String Quartet in B-flat Major
!!!ONM: Opus 50, No. 1
!!!OTL: Affettuoso 
!!!OMV: 2
!!!SCT: H III:44
!!!SCA: Thematisch-bibliographisches Werkevererzeichnis (A. van Hoboken)
!!!YOR: Richault Edition, volume 6
!!!EED: Frances Bennion
!!!ENC: Frances Bennion
!!!CDT: 1732/3/31/-1809/5/31/
!!!OCY: Österreich
!!!YEC: Copyright (c) 1994, 2000 Center for Computer Assisted Research in the Humanities
!!!YEM: Rights to all derivative editions reserved.
!!!YEM: Refer to licensing agreement for further details.
!!!YEN: United States of America
**kern	**kern	**kern	**kern
*k[b-e-a-]	*k[b-e-a-]	*k[b-e-a-]	*k[b-e-a-]
*E-:	*E-:	*E-:	*E-:
*clefF	*clefF	*clefC3	*clefF4
*M6/8	*M6/8	*M6/8	*M6/8
*tb32	*tb32	*tb32	*tb32
=0-	=0-	=0-	=0-
2r	2r	2r	2r
8r	8r	8r	8r
8B-	8r	8r	8r
=1	=1	=1	=1
4e-	4e- 4G	4B-	4E-
8g	8g 8B-	8G	8E-
4b-	4g 4B-	4E-	4E-
32a	8g 8B-	8e-	8E-
32b-	.	.	.
32cc	.	.	.
32b-	.	.	.
=2	=2	=2	=2
8b-	4a- 4B-	4d	4F
8d	.	.	.
8d	8a- 8B-	8f	8F
8d	4a- 4B-	4A-	4F
8r	.	.	.
8B-	8r	8r	8r
=3	=3	=3	=3
4f	4B- 4a-	4f	4D
8a-	8B- 8a-	8f	8D
4cc	4a- 4B-	4f	4D
32b-	8a- 8B-	8f	8D
32a-	.	.	.
32g	.	.	.
32f	.	.	.
=4	=4	=4	=4
8g	4g 4B-	4e-	4E-
8b-	.	.	.
8b-	8B- 8g	8B-	8E-
8b-	4g 4B-	8G	4E-
8r	.	8r	.
8ee-	8r	8B-	8G
=5	=5	=5	=5
8dd	2.B-	8f	4A-
8b-	.	8d	.
8ee-	.	8e-	8G
8a-	.	8f	4D
8f	.	8A-	.
8g	.	8G	8E-
=6	=6	=6	=6
8cc	4.c	4F	4AA-
8a-	.	.	.
8f	.	8c	8AA
8e-	4B-	8G	4BB-
8d	.	8F	.
8ff	8r	8r	8r
=7	=7	=7	=7
4a-	8d	8B-	2.r
.	8e-	8c	.
16a-	8f	8d	.
32g	.	.	.
32a-	.	.	.
8g	8g	8e-	.
8e-	4r	4r	.
8gg	.	.	.
=8	=8	=8	=8
8ee-	8g	8e-	8C
8cc	8e-	8g	8E-
8a	8c	8e-	8F
8b-	8B-	8f	8D
8r	8r	8r	8BB-
[8ee-	8b-	8g	8r
=9	=9	=9	=9
8ee-]	4a-	4f	2r
8dd	.	.	.
4cc	8g	8e-	.
.	4f	4d	.
8b-	.	.	8r
[8a-	8e-	8c	8C
=10	=10	=10	=10
8a-]	4d	4B-	4BB-
8g	.	.	.
8f	8d	8B-	8AA-
8b-	8e-	8B-	8GG
8r	4r	4r	4r
8ee-	.	.	.
=11	=11	=11	=11
8f	4e-	4c	4AA-
8r	.	.	.
8cc	8r	8r	8r
8e-	4g-	4c	4AA
8r	.	.	.
8g-	8r	8r	8r
=12	=12	=12	=12
8B-	4.A-	4.F	4.BB-
8c	.	.	.
8d	.	.	.
8e-	8G	8E-	8EE-
4r	8r	4r	4r
.	8B-	.	.
=13	=13	=13	=13
2.r	4e-	4B- 4g	4E-
.	8g	8g 8B-	8E-
.	4b-	4B- 4g	4E-
.	32a	8g 8B-	8E-
.	32b-	.	.
.	32cc	.	.
.	32b-	.	.
=14	=14	=14	=14
8r	8b-	4a- 4B-	4F
8r	8d	.	.
32aa	8d	8a- 8B-	8F
32bb-	.	.	.
32ccc	.	.	.
32bb-	.	.	.
8bb-	8d	4a- 4B-	4F
8dd	8r	.	.
8dd	8B-	8r	8r
=15	=15	=15	=15
4dd	4f	4a- 4B-	4D
8r	8a-	8a- 8B-	8D
32d	4cc	4a- 4B-	4D
32e-	.	.	.
32f	.	.	.
32g	.	.	.
32a-	.	.	.
32b-	.	.	.
32cc	.	.	.
32dd	.	.	.
32ee-	32b-	8B- 8f	8D
32ff	32a-	.	.
32gg	32g	.	.
32aa-	32f	.	.
=16	=16	=16	=16
4gg	8g	4B- 4g	4E-
.	8b-	.	.
4.r	8b-	8B- 8g	8E-
.	8b-	4g 4B-	4E-
.	8r	.	.
32aa	8ee-	8B-	8G
32bb-	.	.	.
32ccc	.	.	.
32bb-	.	.	.
=17	=17	=17	=17
8bb-	8dd	8f	4A-
8r	8b-	8d	.
32aa	8ee-	8B-	8G
32bb-	.	.	.
32ccc	.	.	.
32bb-	.	.	.
8bb-	8a-	8f	4D
8r	8f	8a-	.
32aa	8g	8g	8E-
32bb-	.	.	.
32ccc	.	.	.
32bb-	.	.	.
=18	=18	=18	=18
32bb	32b	4f	4AA-
32ccc	32cc	.	.
32bb	32b	.	.
32ccc	32cc	.	.
32bb-	32b-	.	.
32aa-	32a-	.	.
32gg	32g	.	.
32ff	32f	.	.
32ee	32e	16c	8AA-
32ff	32f	.	.
32aa-	32a-	16A-	.
32ff	32f	.	.
8ee-	8e-	8G	4BB-
8dd	8d	8F	.
8r	8ff	8r	8r
=19	=19	=19	=19
32B-	4a-	4f 4B-	4D
32c	.	.	.
32d	.	.	.
32e-	.	.	.
32f	.	.	.
32g	.	.	.
32a-	.	.	.
32b-	.	.	.
32cc	16a-	8f 8B-	8D
32dd	.	.	.
32ee-	32g	.	.
32ff	32a-	.	.
8gg	8g	4g 4B-	4E-
4r	8e-	.	.
.	8gg	8r	8r
=20	=20	=20	=20
32f	8ee-	4A	4F
32g	.	.	.
32a	.	.	.
32b-	.	.	.
32cc	8cc	.	.
32dd	.	.	.
32ee-	.	.	.
32ff	.	.	.
32gg	8a	8e-	8F
32aa	.	.	.
32bb-	.	.	.
32ccc	.	.	.
8bb-	8b-	8d	8BB-
4r	8r	8r	8r
.	32ee-	8b-	8g
.	32gg	.	.
.	32ff	.	.
.	32ee-	.	.
=21	=21	=21	=21
2.r	8ee-	4a-	4f
.	8dd	.	.
.	32cc	8g	8e-
.	32ee-	.	.
.	32dd	.	.
.	32cc	.	.
.	8cc	4f	4d
.	8b-	.	.
.	32a-	8e-	8c
.	32cc	.	.
.	32b-	.	.
.	32a-	.	.
=22	=22	=22	=22
8r	8a-	4d	4B-
8r	8g	.	.
8d	8f	8B-	8A-
8e-	8b-	8B-	8G
4r	16r	4r	4r
.	16dd	.	.
.	16ff	.	.
.	16ee-	.	.
=23	=23	=23	=23
8e-	8f	8c	8AA-
4r	16r	4r	4r
.	16b	.	.
.	16dd	.	.
.	16cc	.	.
8g-	8e-	8c	8AA
4r	16r	4r	4r
.	32d	.	.
.	32e-	.	.
.	32d	.	.
.	32e-	.	.
.	32g-	.	.
.	32e-	.	.
=24	=24	=24	=24
4.A-	8B-	4.F	4.BB-
.	8c	.	.
.	8d	.	.
8G	8e-	8G	8EE-
8r	4r	4r	4r
8b-	.	.	.
=25	=25	=25	=25
4ee-	16r	16r	4E-
.	16g-	16B-	.
.	16g-	16B-	.
.	16g-	16B-	.
8gg-	16r	16r	8E-
.	16g-	16B-	.
4bb-	16r	16r	4E-
.	16g-	16B-	.
.	16g-	16B-	.
.	16g-	16B-	.
32aa	16r	16r	8E-
32bb-	.	.	.
32ccc-	16g-	16B-	.
32bb-	.	.	.
=26	=26	=26	=26
8bb-	16r	16r	4F
.	16a-	16B-	.
8dd	16a-	16B-	.
.	16a-	16B-	.
8dd	16r	16r	8F
.	16a-	16B-	.
8dd	16r	16r	4F
.	16a-	16B-	.
8r	16a-	16B-	.
.	16a-	16B-	.
8b-	16r	16r	8F
.	16a-	16B-	.
=27	=27	=27	=27
4ff	16r	16r	4D
.	16a-	16B-	.
.	16a-	16B-	.
.	16a-	16B-	.
8aa-	16r	16r	8D
.	16a-	16B-	.
4ccc-	16r	16r	4D
.	16a-	16f	.
.	16a-	16f	.
.	16a-	16f	.
32bb-	16r	16r	8D
32aa-	.	.	.
32gg-	16a-	16B-	.
32ff	.	.	.
=28	=28	=28	=28
8gg-	16r	16r	4E-
.	16g-	16B-	.
8bb-	16g-	16B-	.
.	16g-	16B-	.
8bb-	16r	16r	8E-
.	16g-	16B-	.
8bb-	16r	16r	4E-
.	16g-	16B-	.
8r	16g-	16B-	.
.	16g-	16B-	.
8eee-	32r	16r	8G-
.	32e-	.	.
.	32b-	16B-	.
.	32e-	.	.
=29	=29	=29	=29
8ddd	32r	16r	4A-
.	32d	.	.
.	32f	16B-	.
.	32d	.	.
8bb-	32b-	16B-	.
.	32d	.	.
.	32f	16B-	.
.	32d	.	.
8eee-	32r	16r	8G-
.	32e-	.	.
.	32b-	16B-	.
.	32e-	.	.
8ddd	32r	16r	4A-
.	32d	.	.
.	32f	16B-	.
.	32d	.	.
8bb-	32b-	16B-	.
.	32d	.	.
.	32f	16B-	.
.	32d	.	.
8eee-	32r	16r	8G-
.	32e-	.	.
.	32b-	16B-	.
.	32e-	.	.
=30	=30	=30	=30
8ggg-	32r	16r	8C-
.	32e-	.	.
.	32a	16A	.
.	32e-	.	.
8eee-	32r	16A	8c-
.	32e-	.	.
.	32a	16A	.
.	32e-	.	.
8aa	32r	16r	8c-
.	32e-	.	.
.	32a	16e-	.
.	32e-	.	.
8bb-	8d	8d	8B-
8r	8b-	8B-	8BB-
32bb-	8r	8r	8r
32aa-	.	.	.
32bb-	.	.	.
32ccc-	.	.	.
=31	=31	=31	=31
8ddd-	16r	16r	4G-
.	16d-	16B-	.
8bb-	16d-	16B-	.
.	16d-	16B-	.
8gg-	16r	16r	8G-
.	16d-	16B-	.
16.ff	16r	16r	4A-
.	16d-	16c-	.
32gg-	.	.	.
32ff	16d-	16c-	.
32gg-	.	.	.
32aa-	16d-	16c-	.
32gg-	.	.	.
32bb-	16r	16r	8A-
32aa-	.	.	.
32ccc-	16d-	16c-	.
32bb-	.	.	.
=32	=32	=32	=32
16ddd-	16r	16r	4D-
16ccc-	16f	16c-	.
16bb-	16f	16c-	.
16aa-	16f	16c-	.
16gg-	16r	16r	8D-
16ff	16a-	16c-	.
8.gg-	16r	16r	4G-
.	16d-	16B-	.
.	16d-	16B-	.
16aa-	16d-	16B-	.
32bb-	16r	16r	8G-
32ccc-	.	.	.
32bb-	16d-	16B-	.
32ccc-	.	.	.
=33	=33	=33	=33
8bb-	16r	16r	4F
.	16d	16A-	.
8dd	16d	16A-	.
.	16d	16A-	.
32bb-	16r	16r	8F
32ccc-	.	.	.
32bb-	16d	16A-	.
32ccc-	.	.	.
8bb-	16r	16r	4E-
.	16e-	16G-	.
8ee-	16e-	16G-	.
.	16e-	16G-	.
32bb-	16r	16r	8E-
32ccc-	.	.	.
32bb-	16e-	16G-	.
32ccc-	.	.	.
=34	=34	=34	=34
8ddd-	16r	16r	4D-
.	16e- 16G	16B-	.
8bb-	16G 16e-	16B-	.
.	16G 16e-	16B-	.
8gg	16r	16r	8D-
.	16e- 16G	16B-	.
8.aa-	16r	16r	4C-
.	16e- 16A-	16A-	.
.	16A- 16e-	16A-	.
32ddd-	16e- 16A-	16A-	.
32ccc-	.	.	.
32bb-	16r	16r	8AA-
32aa-	.	.	.
32gg-	16a-	16A-	.
32ff	.	.	.
=35	=35	=35	=35
8.ee-	16r	16r	4BB-
.	16g-	16B-	.
.	16g-	16B-	.
16ff	16g-	16B-	.
8dd	16r	16r	8BB-
.	16f	16A-	.
8ee-	8e-	8G-	8E-
8r	8r	4r	8EE-
8B-	8r	.	8r
=36	=36	=36	=36
4e-	4e- 4G	4E-	32r
.	.	.	32E-
.	.	.	32D
.	.	.	32E-
.	.	.	32G
.	.	.	32E-
.	.	.	32D
.	.	.	32E-
8g	8B- 8g	8e-	32BB-
.	.	.	32E-
.	.	.	32GG
.	.	.	32BB-
4b-	4B- 4g	4e-	32EE-
.	.	.	32E-
.	.	.	32F
.	.	.	32G
.	.	.	32A-
.	.	.	32B-
.	.	.	32c
.	.	.	32d
32a	8g 8B-	8e-	16e-
32b-	.	.	.
32cc	.	.	16e-
32b-	.	.	.
=37	=37	=37	=37
8b-	8a-	8d	8f
8d	8f	8B-	8a-
8d	8f	8B-	8a-
8d	8f	8B-	8a-
8r	4r	4r	4r
8B-	.	.	.
=38	=38	=38	=38
4f	4d	4B-	32BB-
.	.	.	32B-
.	.	.	32A
.	.	.	32B-
.	.	.	32d
.	.	.	32B-
.	.	.	32A
.	.	.	32B-
8a-	8f	8f	32F
.	.	.	32B-
.	.	.	32D
.	.	.	32F
4cc	4a-	4d	32BB-
.	.	.	32C
.	.	.	32D
.	.	.	32E-
.	.	.	32F
.	.	.	32G
.	.	.	32A-
.	.	.	32B-
32b-	8f	8B-	16c
32a-	.	.	.
32g	.	.	16d
32f	.	.	.
=39	=39	=39	=39
8g	8g	8E-	8e-
8b-	8e-	8E-	8g
8b-	8B-	8E-	8g
8b-	8G	8E-	8g
8r	8r	4r	8r
8ee-	8B-	.	32GG
.	.	.	32BB-
.	.	.	32GG
.	.	.	32BB-
=40	=40	=40	=40
8dd	2.B-	4f	32AA-
.	.	.	32BB-
.	.	.	32AA-
.	.	.	32BB-
8b-	.	.	32AA-
.	.	.	32BB-
.	.	.	32AA-
.	.	.	32BB-
8ee-	.	8e-	32GG
.	.	.	32BB-
.	.	.	32GG
.	.	.	32BB-
8a-	.	4f	32DD
.	.	.	32BB-
.	.	.	32DD
.	.	.	32BB-
8f	.	.	32DD
.	.	.	32BB-
.	.	.	32DD
.	.	.	32BB-
8g	.	8e-	32EE-
.	.	.	32BB-
.	.	.	32EE-
.	.	.	32BB-
=41	=41	=41	=41
32e	4.c	4c	4.AA-
32f	.	.	.
32g	.	.	.
32f	.	.	.
32a-	.	.	.
32g	.	.	.
32b-	.	.	.
32a-	.	.	.
32b	.	8A-	.
32cc	.	.	.
32a-	.	.	.
32f	.	.	.
8e-	4B-	8G	4BB-
8d	.	8F	.
8ff	8r	8r	8r
=42	=42	=42	=42
4a-	4d	4f	32BB-
.	.	.	32AA
.	.	.	32BB-
.	.	.	32C
.	.	.	32D
.	.	.	32E-
.	.	.	32F
.	.	.	32G
16a-	8f	8d	32A-
.	.	.	32B-
32g	.	.	32c
32a-	.	.	32d
8g	8B-	8e-	8e-
8e-	4r	4r	4r
8gg	.	.	.
=43	=43	=43	=43
8ee-	8g	4C	32r
.	.	.	32CC
.	.	.	32DD
.	.	.	32EE-
8cc	8e-	.	32FF
.	.	.	32GG
.	.	.	32AA
.	.	.	32BB-
8a	8c	8F	32C
.	.	.	32D
.	.	.	32E-
.	.	.	32F
8b-	8d	8F	8D
8r	8r	8r	8BB-
32ee-	8b-	8g	8r
32bb-	.	.	.
32gg	.	.	.
32ee-	.	.	.
=44	=44	=44	=44
16ee-	4a-	4f	2r
16dd	.	.	.
16dd	.	.	.
16dd	.	.	.
32cc	8g	8e-	.
32gg	.	.	.
32ee-	.	.	.
32cc	.	.	.
16cc	4f	4d	.
16b	.	.	.
16b-	.	.	8r
16b-	.	.	.
32a-	8e-	8c	8C
32ee-	.	.	.
32cc	.	.	.
32a-	.	.	.
=45	=45	=45	=45
16a-	4d	4B-	4BB-
16g	.	.	.
16g	.	.	.
16f	.	.	.
32f	8d	8B-	8AA-
32a-	.	.	.
32g	.	.	.
32f	.	.	.
8b-	8e-	8B-	8GG
16r	4r	4r	4r
32dd	.	.	.
32ee-	.	.	.
32dd	.	.	.
32ee-	.	.	.
32dd	.	.	.
32ee-	.	.	.
=46	=46	=46	=46
8f	8e-	8c	8AA-
16r	4r	4r	4r
32b	.	.	.
32cc	.	.	.
32b	.	.	.
32cc	.	.	.
32b	.	.	.
32cc	.	.	.
8e-	8g-	8c	8AA
16r	16r	16r	16r
32f	32f	32f	32F
32g-	32g-	32g-	32G-
32f	32f	32f	32F
32g-	32g-	32g-	32G-
32f	32f	32f	32F
32g-	32g-	32g-	32G-
=47	=47	=47	=47
8B-	4.A-	8B-	4.BB-
8c	.	8A-	.
8d	.	8F	.
8e-	8G	8E-	8EE-
8r	8r	8r	8r
8bb-	32ee-	8b-	8g
.	32gg	.	.
.	32ff	.	.
.	32ee-	.	.
=48	=48	=48	=48
[2bb-	8ee-	4b-	4f
.	8dd	.	.
.	32ff	32dd	8a-
.	32aa-	32ff	.
.	32gg	32ee-	.
.	32ff	32dd	.
.	8ff	8dd	4g
8bb-]	8gg	8ee-	.
32bb-	8b-	8b-	8g
32ccc	.	.	.
32ddd	.	.	.
32eee-	.	.	.
=49	=49	=49	=49
8eee-	8.a-	8.b-	8.f
16ddd	.	.	.
16eee-	16g	16b-	16e-
16fff	16f	16b-	16d
16ggg	16e-	16b-	16c
8aaa-	8d	8b-	8B-
8r	8r	8r	8r
8ggg	8b-	8e-	8E-
=50	=50	=50	=50
8fff	8cc	8a-	8A-
8r	8r	8r	8r
8eee-	8cc	4f	8A
8ddd	8b-	.	8B-
8r	8r	8r	8r
8bb-	8b-	8d	8BB-
=51	=51	=51	=51
4bb-	4.cc	32e	2.BB-
.	.	32g	.
.	.	32f	.
.	.	32e	.
.	.	32cc	.
.	.	32g	.
.	.	32f	.
.	.	32e	.
8aa-	.	32f	.
.	.	32a-	.
.	.	32f	.
.	.	32e-	.
4aa-	4.b-	32d	.
.	.	32f	.
.	.	32e-	.
.	.	32d	.
.	.	32b-	.
.	.	32f	.
.	.	32e-	.
.	.	32d	.
8gg	.	32e-	.
.	.	32g	.
.	.	32e-	.
.	.	32d	.
=52	=52	=52	=52
4gg	4.a-	32c	2.BB-
.	.	32e-	.
.	.	32d	.
.	.	32c	.
.	.	32a-	.
.	.	32e-	.
.	.	32d	.
.	.	32c	.
8ff	.	32d	.
.	.	32f	.
.	.	32e-	.
.	.	32d	.
4ff	4.g	32c	.
.	.	32d	.
.	.	32e-	.
.	.	32d	.
.	.	32e-	.
.	.	32f	.
.	.	32g	.
.	.	32f	.
8ee-	.	32e-	.
.	.	32d	.
.	.	32c	.
.	.	32B-	.
=53	=53	=53	=53
32ee-	2.e- 2.c	2.A	2.BB-
32dd	.	.	.
32ff	.	.	.
32ee-	.	.	.
32gg	.	.	.
32ff	.	.	.
32ee-	.	.	.
32dd	.	.	.
32cc	.	.	.
32b-	.	.	.
32a	.	.	.
32cc	.	.	.
32ee-	.	.	.
32dd	.	.	.
32cc	.	.	.
32b-	.	.	.
32a	.	.	.
32g	.	.	.
32f	.	.	.
32e-	.	.	.
32d	.	.	.
32c	.	.	.
32B-	.	.	.
32A	.	.	.
=54	=54	=54	=54
32B-	32B-	32B-	32BB-
32A	32A	32A	32AA
32c	32c	32c	32C
32B-	32B-	32B-	32BB-
32d	32d	32d	32D
32c	32c	32c	32C
32e-	32e-	32e-	32E-
32d	32d	32d	32D
32f	32f	32f	32F
32e-	32e-	32e-	32E-
32g	32g	32g	32G
32f	32f	32f	32F
32a-	32a-	32a-	32A-
32b-	32b-	32b-	32B-
32cc	32cc	32cc	32c
32b-	32b-	32b-	32B-
32a-	32a-	32a-	32A-
32b-	32b-	32b-	32B-
32g	32g	32g	32G
32a-	32a-	32a-	32A-
32f	32f	32f	32F
32g	32g	32g	32G
32e-	32e-	32e-	32E-
32f	32f	32f	32F
=55	=55	=55	=55
16d	8d	8d	8D
16f	.	.	.
16a-	2r	2r	2r
16b-	.	.	.
16dd	.	.	.
16ff	.	.	.
8aa-	.	.	.
8ff	.	.	.
8dd	8r	8r	8r
=56	=56	=56	=56
8cc-	4.r	4.r	4.r
8a-	.	.	.
8f	.	.	.
4d	4B-	4F	4AA-
8ee-	[8e-	8B-	8GG
=57	=57	=57	=57
8f	8e-]	8c	8AA-
8r	4r	4r	4r
8cc	.	.	.
8e-	8g-	8c	8AA
8r	4r	4r	4r
8g-	.	.	.
=58	=58	=58	=58
8B-	4.A-	4.F	4.BB-
8c	.	.	.
8d	.	.	.
8e-	8G	8G	8EE-
16r	4r	4r	4r
32dd	.	.	.
32ee-	.	.	.
16ee-	.	.	.
32dd	.	.	.
32cc	.	.	.
=59	=59	=59	=59
[4b-	8B-	8D	4.BB-
.	8c	8E-	.
32b-]	8d	8F	.
32cc	.	.	.
32b-	.	.	.
32a-	.	.	.
8g	8e-	8G	8E-
16r	4r	4r	4r
32dd	.	.	.
32ee-	.	.	.
16ee-	.	.	.
32dd	.	.	.
32cc	.	.	.
=60	=60	=60	=60
4b-	8B-	8D	4.BB-
.	8c	8E-	.
32b-	8d	8F	.
32a-	.	.	.
32g	.	.	.
32f	.	.	.
8e-	8e-	8G	8E-
8r	8r	8r	8r
8g	8B-	8B-	32EE-
.	.	.	32DD
.	.	.	32EE-
.	.	.	32DD
=61	=61	=61	=61
8e-	8G	8B-	8EE-
8e-	8G	8B-	8EE-
8e-	8G	8B-	8EE-
8e-	8G	8B-	8EE-
4r	4r	4r	4r
==	==	==	==
*-	*-	*-	*-
!!!RWG1: This file contains only pitch and duration data.
!!!RWG2: Transposing instruments are not transposed.
!!!RWG3: Spines may have incompatible meters.
!!!RWG4: Durations of rests and tied notes may be interpreted.
!!!RWG: Key is interpreted using the Humdrum key tool.
!!!GTL: 6 Quartetti ("Prussian")
!!!AFT: stage1
!!!END: 1997/04/15
!!format changes:
!!content changes:
!!public access: complete
!!!KEY: 3357550176
!!!EMD: Converted from MuseData to Humdrum Dec 16, 2000, by Andreas Kornstaedt using muse2kern.
